X: 40986
T: Trip To Dublin, The
R: strathspey
M: 4/4
K: Amajor
|:C<E AB c2 cB|AB cd ef e<c|fe df ed cA|(3Bc^d (3faf g<e e2|
C<E AB c2 cB|AB cd ef e<c|fe df ed cA|(3GAB (3fed c<A A2:|
|:af ed c<B c2|dB cA BA G<E|F<D AF EA cA|B<F BA AG F<E|
af ed c<B c2|dB cA BA G<E|F<D AF EA cA|(3GAB (3fed c<A A2:|

